X: 874
T: Whiskey and Water
N:"Collected by F.O'Neill"
B:O'Neill's 874
Z:Transcribed by Dan G. Petersen, dangp@post6.tele.dk
M:6/8
L:1/8
K:Em
B2A G3|GBA G3|B2A G2A|B2A BGE|
B2A G3|GBA G2E|FEF d2B|e2B AFD:|
B2e e2d|fed e3|B2e e2f|g2e fdB|
|1 B2^c d2B|edc d3|B2^c d2e|f2e dBA:|
|2 B2^c d2=c|(B>cB/A/) G3|FEF d2B|e2B AFD|]


